icons/google-play-line.svg

<svg viewBox="0 0 24 24" fill="currentColor" xmlns="http://www.w3.org/2000/svg">
    <path d="M4.00098 1.73438C4.17692 1.73438 4.34975 1.7808 4.50201 1.86895L20.5061 11.1345C20.9841 11.4112 21.1473 12.023 20.8705 12.501C20.783 12.6522 20.6574 12.7778 20.5061 12.8654L4.50201 22.1309C4.02405 22.4076 3.41226 22.2445 3.13555 21.7665C3.0474 21.6143 3.00098 21.4414 3.00098 21.2655V2.73438C3.00098 2.18209 3.44869 1.73438 4.00098 1.73438ZM12.2931 13.4132L7.79498 17.9124L13.494 14.6134L12.2931 13.4132ZM4.99998 6.11938V17.8784L10.8791 11.9992L4.99998 6.11938ZM15.284 10.4214L13.7071 11.9992L15.285 13.5764L18.009 11.9999L15.284 10.4214ZM7.79398 6.08537L12.2931 10.5852L13.493 9.38437L7.79398 6.08537Z"/>
</svg>

<svg xmlns="http://www.w3.org/2000/svg" viewBox="0 0 24 24">
    <g>
        <path fill="none" d="M0 0h24v24H0z"/>
        <path d="M4 1.734a1 1 0 0 1 .501.135l16.004 9.266a1 1 0 0 1 0 1.73L4.501 22.131A1 1 0 0 1 3 21.266V2.734a1 1 0 0 1 1-1zm8.292 11.68l-4.498 4.498 5.699-3.299-1.2-1.2zM5 6.118v11.76l5.88-5.88-5.88-5.88zm10.284 4.302L13.706 12l1.578 1.577L18.008 12l-2.725-1.579zm-7.49-4.336l4.5 4.5 1.199-1.2-5.699-3.3z"/>
    </g>
</svg>
